X:1
T:THE WATERS OF TYNE
M:6/8
L:1/8
K:D
 A| AFF AFF| D D3/2 D/2 D2E/2-F/2| GGF EFA| B B3/2 B/2 A2F/2-E/2| Ddd d3/2 e/2 f|\
 d A3/2 B/2 B2c/2-d/2| AFA A F3/2 E/2| D D3/2 D/2 D2||

